icons/castle-11.svg

<?xml version="1.0" encoding="utf-8"?>
<!-- Generator: Adobe Illustrator 19.2.1, SVG Export Plug-In . SVG Version: 6.00 Build 0)  -->
<!DOCTYPE svg PUBLIC "-//W3C//DTD SVG 1.1//EN" "http://www.w3.org/Graphics/SVG/1.1/DTD/svg11.dtd">
<svg version="1.1" id="Layer_1" xmlns="http://www.w3.org/2000/svg" xmlns:xlink="http://www.w3.org/1999/xlink" x="0px" y="0px"
	 width="11px" height="11px" viewBox="0 0 11 11" style="enable-background:new 0 0 11 11;" xml:space="preserve">
<path d="M8.67,0.81v1.48C8.6812,2.6709,8.3815,2.9888,8.0006,3C8.0004,3,8.0002,3,8,3H3.09c-0.381,0.0056-0.6944-0.2988-0.7-0.6799
	C2.3899,2.3134,2.3899,2.3067,2.39,2.3V0.81c0-0.1905,0.1545-0.345,0.345-0.345S3.08,0.6195,3.08,0.81V1.5H4V1l0,0
	c0-0.2761,0.2239-0.5,0.5-0.5S5,0.7239,5,1l0,0v0.5h1V1l0,0c0-0.2761,0.2239-0.5,0.5-0.5S7,0.7239,7,1l0,0v0.5h1V0.81
	C7.9679,0.625,8.0919,0.449,8.2769,0.4169c0.185-0.0321,0.361,0.0919,0.3931,0.2769C8.6767,0.7323,8.6767,0.7716,8.67,0.81z
	 M10.06,9.63c0,0.1933-0.1567,0.35-0.35,0.35h0H1.35C1.1567,9.9799,1.0001,9.8231,1.0002,9.6298
	C1.0004,9.4366,1.1569,9.2801,1.35,9.28H1.7c0.3754,0.0112,0.6888-0.284,0.7-0.6594c0.0004-0.0135,0.0004-0.0271,0-0.0406
	c0,0,0.7-3.2,0.7-3.89C3.0944,4.3145,3.3943,4.0056,3.7699,4C3.7766,3.9999,3.7833,3.9999,3.79,4h3.48
	c0.3754-0.0112,0.6888,0.284,0.7,0.6594c0.0004,0.0135,0.0004,0.0271,0,0.0406c0,0.7,0.7,3.89,0.7,3.89
	c-0.0112,0.3754,0.284,0.6888,0.6594,0.7c0.0135,0.0004,0.0271,0.0004,0.0406,0h0.34c0.1933,0,0.35,0.1567,0.35,0.35v0V9.63z
	 M6.5,7.5c0-0.5523-0.4477-1-1-1s-1,0.4477-1,1v2h2V7.5z"/>
</svg>

<svg id="Layer_1" data-name="Layer 1" xmlns="http://www.w3.org/2000/svg" width="11" height="11" viewBox="0 0 11 11">
  <title>castle-11</title>
  <path d="M8.67,0.81V2.29A0.69,0.69,0,0,1,8,3H3.09a0.69,0.69,0,0,1-.7-0.7V0.81a0.34,0.34,0,1,1,.69,0V1.5H4V1H4A0.5,0.5,0,0,1,5,1H5V1.5H6V1H6A0.5,0.5,0,0,1,7,1H7V1.5H8V0.81A0.34,0.34,0,1,1,8.67.81Zm1.39,8.82a0.35,0.35,0,0,1-.35.35H1.35a0.35,0.35,0,0,1,0-.7H1.7a0.68,0.68,0,0,0,.7-0.7s0.7-3.2.7-3.89A0.68,0.68,0,0,1,3.79,4H7.27a0.68,0.68,0,0,1,.7.7c0,0.7.7,3.89,0.7,3.89a0.68,0.68,0,0,0,.7.7H9.71A0.35,0.35,0,0,1,10.06,9.64ZM6.5,7.5a1,1,0,0,0-2,0v2h2v-2Z"/>
</svg>
